X: 40972
T: Trip To Dingle, The
R: polka
M: 2/4
K: Dmajor
|:E|DE/F/ AA|AB F2-|Fd BA|B/d/B/A/ FD|
B2 AB|D>E FA|AB FE|1 D2 D:|2 D2- D2||
B2 AB|de f2|ed/e/ fe|ed B/c/d/A/|
B2 AB|de fa|ab fd|e2 dA|
B2 AB/c/|de f2|e2 fe|ed BA|
B2 AA/B/|D>E FA|AB F/F/E|D2 D||

